src/assets/outline/DirectSend.svg

<svg width="24" height="24" viewBox="0 0 24 24"  xmlns="http://www.w3.org/2000/svg">
<path d="M11.9999 9.74999C11.5899 9.74999 11.2499 9.40999 11.2499 8.99999V3.80999L10.5299 4.52999C10.2399 4.81999 9.75994 4.81999 9.46994 4.52999C9.17994 4.23999 9.17994 3.75999 9.46994 3.46999L11.4699 1.46999C11.6799 1.25999 12.0099 1.18999 12.2899 1.30999C12.5699 1.41999 12.7499 1.69999 12.7499 1.99999V8.99999C12.7499 9.40999 12.4099 9.74999 11.9999 9.74999Z" />
<path d="M13.9999 4.74994C13.8099 4.74994 13.6199 4.67994 13.4699 4.52994L11.4699 2.52994C11.1799 2.23994 11.1799 1.75994 11.4699 1.46994C11.7599 1.17994 12.2399 1.17994 12.5299 1.46994L14.5299 3.46994C14.8199 3.75994 14.8199 4.23994 14.5299 4.52994C14.3799 4.67994 14.1899 4.74994 13.9999 4.74994Z" />
<path d="M13.76 17.75H10.23C9.17998 17.75 8.23998 17.17 7.76998 16.23L6.59998 13.89C6.55998 13.8 6.46998 13.75 6.37998 13.75H1.97998C1.56998 13.75 1.22998 13.41 1.22998 13C1.22998 12.59 1.56998 12.25 1.97998 12.25H6.38998C7.05998 12.25 7.65998 12.62 7.95998 13.22L9.12998 15.56C9.33998 15.99 9.76998 16.25 10.25 16.25H13.78C14.26 16.25 14.69 15.99 14.9 15.56L16.07 13.22C16.37 12.62 16.97 12.25 17.64 12.25H22C22.41 12.25 22.75 12.59 22.75 13C22.75 13.41 22.41 13.75 22 13.75H17.64C17.54 13.75 17.46 13.8 17.42 13.89L16.25 16.23C15.75 17.17 14.81 17.75 13.76 17.75Z" />
<path d="M15 22.7499H9C3.57 22.7499 1.25 20.4299 1.25 14.9999V11.9999C1.25 7.30993 2.99 4.95993 6.89 4.38993C7.31 4.32993 7.68 4.60993 7.74 5.01993C7.8 5.42993 7.52 5.80993 7.11 5.86993C3.97 6.32993 2.75 8.04993 2.75 11.9999V14.9999C2.75 19.6099 4.39 21.2499 9 21.2499H15C19.61 21.2499 21.25 19.6099 21.25 14.9999V11.9999C21.25 8.04993 20.03 6.32993 16.89 5.86993C16.48 5.80993 16.2 5.42993 16.26 5.01993C16.32 4.60993 16.7 4.32993 17.11 4.38993C21.01 4.95993 22.75 7.30993 22.75 11.9999V14.9999C22.75 20.4299 20.43 22.7499 15 22.7499Z" />
</svg>

<?xml version="1.0" encoding="UTF-8"?>
<svg width="24" height="24" viewBox="0 0 24 24" xmlns="http://www.w3.org/2000/svg">
 <path d="m12 9.75c-0.41 0-0.75-0.34-0.75-0.75v-5.19l-0.72 0.72c-0.29 0.29-0.76996 0.29-1.06 0s-0.29-0.77 0-1.06l2-2c0.21-0.21 0.54-0.28 0.82-0.16 0.28 0.11 0.46 0.39 0.46 0.69v7c0 0.41-0.34 0.75-0.75 0.75z"/>
 <path d="m14 4.7499c-0.19 0-0.38-0.07-0.53-0.22l-2-2c-0.29-0.29-0.29-0.77 0-1.06s0.77-0.29 1.06 0l2 2c0.29 0.29 0.29 0.77 0 1.06-0.15 0.15-0.34 0.22-0.53 0.22z"/>
 <path d="m13.76 17.75h-3.53c-1.05 0-1.99-0.58-2.46-1.52l-1.17-2.34c-0.04-0.09-0.13-0.14-0.22-0.14h-4.4c-0.41 0-0.75-0.34-0.75-0.75s0.34-0.75 0.75-0.75h4.41c0.67 0 1.27 0.37 1.57 0.97l1.17 2.34c0.21 0.43 0.64 0.69 1.12 0.69h3.53c0.48 0 0.91-0.26 1.12-0.69l1.17-2.34c0.3-0.6 0.9-0.97 1.57-0.97h4.36c0.41 0 0.75 0.34 0.75 0.75s-0.34 0.75-0.75 0.75h-4.36c-0.1 0-0.18 0.05-0.22 0.14l-1.17 2.34c-0.5 0.94-1.44 1.52-2.49 1.52z"/>
 <path d="m15 22.75h-6c-5.43 0-7.75-2.32-7.75-7.75v-3c0-4.69 1.74-7.04 5.64-7.61 0.42-0.06 0.79 0.22 0.85 0.63s-0.22 0.79-0.63 0.85c-3.14 0.46-4.36 2.18-4.36 6.13v3c0 4.61 1.64 6.25 6.25 6.25h6c4.61 0 6.25-1.64 6.25-6.25v-3c0-3.95-1.22-5.67-4.36-6.13-0.41-0.06-0.69-0.44-0.63-0.85s0.44-0.69 0.85-0.63c3.9 0.57 5.64 2.92 5.64 7.61v3c0 5.43-2.32 7.75-7.75 7.75z"/>
</svg>
